public/avatar/shoe/44.svg

<svg xmlns:xlink="http://www.w3.org/1999/xlink" height="38.3" width="36.05" xmlns="http://www.w3.org/2000/svg"><use height="14.35" transform="translate(9.4 13.95)" width="22.55" xlink:href="#a"/><defs><g id="a"><path d="m-1.1-.15-.1.25q1.6.9 2 2.85Q1 4.2.6 5.25l1.6 1.3q1.1.65 2.85 1.15l2.3.55.3.05-.15.95q-.4 1.05-6.2 2.7-6.3 1.65-13.15.6-1.65-.35-2.3-1.5-.6-1.1 1-2.9 1.55-1.9 5.35-4.8Q-3.95.45-1.3-.1l.2-.05" fill="#fff" fill-rule="evenodd" transform="translate(14.4 .9)"/><path d="m-1.1-.15.95-.1H1l1.05.2 1.85.7.15.1.5.25.4.4.7.6Q6.6 3.15 7.1 4.65l.3.85.1.75v.3l.15 1.75-.3-.05-2.3-.55Q3.3 7.2 2.2 6.55L.6 5.25Q1 4.2.8 2.95.4 1-1.2.1l.1-.25" fill="#d5dbe6" fill-rule="evenodd" transform="translate(14.4 .9)"/><path d="m5.25 2.6-.15.25q-.5 1.05-1.75 1.4l-3.5.45Q.3 2.05-.7.9-1.4.1-2.9.2l-1.35.25.05-.3 4.75-.3q3.9.5 4.7 2.75" fill="gray" fill-rule="evenodd" transform="translate(14.4 .9)"/><path d="M-11.05 6.15q4.8.65 6.1 2.65 1.25 1.9.35 3.95-7.9.5-8.75-1.3-1.3-2.95 2.3-5.3" fill="#ed61dc" fill-rule="evenodd" transform="translate(14.4 .9)"/><path d="M3.75.9Q1.4-.65-1.1-.25-2.85-.7-4.3.1l-2.2 1.45-1.1 1.3-.45.75-1.45 1.1-1.5 1.25q-2 1.75-2.55 2.75-.55 1-.2 2.15.25 1.35 1.9 1.7Q-5.4 13.6.4 11.95 7.15 10 7.5 9.25 8.05 7.7 6.2 3.4 5.6 2.15 3.75.9Z" fill="none" stroke="#2b1f16" stroke-linecap="round" stroke-linejoin="round" transform="translate(14.4 .9)"/><path d="M7.05 8.85Q1.3 11.5-4.3 12.05l-7.35-.3q-1.75-.95-1.85-1.85" fill="none" stroke="#b01e8e" stroke-linecap="round" stroke-linejoin="round" transform="translate(14.4 .9)"/><path d="M-.4 5.8Q1.3 1.6-.75.65q-2.2-1-4.3.8L-7.3 3.9" fill="none" stroke="#fff" stroke-linecap="round" stroke-linejoin="round" transform="translate(14.4 .9)"/></g></defs></svg>

<?xml version="1.0" encoding="UTF-8" standalone="no"?>
<svg xmlns:xlink="http://www.w3.org/1999/xlink" height="38.3px" width="36.05px" xmlns="http://www.w3.org/2000/svg">
  <g transform="matrix(1.0, 0.0, 0.0, 1.0, 23.8, 14.85)">
    <use height="14.35" transform="matrix(1.0, 0.0, 0.0, 1.0, -14.4, -0.9)" width="22.55" xlink:href="#shape0"/>
  </g>
  <defs>
    <g id="shape0" transform="matrix(1.0, 0.0, 0.0, 1.0, 14.4, 0.9)">
      <path d="M-1.1 -0.15 L-1.2 0.1 Q0.4 1.0 0.8 2.95 1.0 4.2 0.6 5.25 L2.2 6.55 Q3.3 7.2 5.05 7.7 L7.35 8.25 7.65 8.3 7.5 9.25 Q7.1 10.3 1.3 11.95 -5.0 13.6 -11.85 12.55 -13.5 12.2 -14.15 11.05 -14.75 9.95 -13.15 8.15 -11.6 6.25 -7.8 3.35 -3.95 0.45 -1.3 -0.1 L-1.1 -0.15" fill="#ffffff" fill-rule="evenodd" stroke="none"/>
      <path d="M-1.1 -0.15 L-0.15 -0.25 1.0 -0.25 2.05 -0.05 3.9 0.65 4.05 0.75 4.55 1.0 4.95 1.4 5.65 2.0 Q6.6 3.15 7.1 4.65 L7.4 5.5 7.5 6.25 7.5 6.55 7.65 8.3 7.35 8.25 5.05 7.7 Q3.3 7.2 2.2 6.55 L0.6 5.25 Q1.0 4.2 0.8 2.95 0.4 1.0 -1.2 0.1 L-1.1 -0.15" fill="#d5dbe6" fill-rule="evenodd" stroke="none"/>
      <path d="M5.25 2.6 L5.1 2.85 Q4.6 3.9 3.35 4.25 L-0.15 4.7 Q0.3 2.05 -0.7 0.9 -1.4 0.1 -2.9 0.2 L-4.25 0.45 -4.2 0.15 0.55 -0.15 Q4.45 0.35 5.25 2.6" fill="#808080" fill-rule="evenodd" stroke="none"/>
      <path d="M-11.05 6.15 Q-6.25 6.8 -4.95 8.8 -3.7 10.7 -4.6 12.75 -12.5 13.25 -13.35 11.45 -14.65 8.5 -11.05 6.15" fill="#ed61dc" fill-rule="evenodd" stroke="none"/>
      <path d="M3.75 0.9 Q1.4 -0.65 -1.1 -0.25 -2.85 -0.7 -4.3 0.1 L-6.5 1.55 -7.6 2.85 -8.05 3.6 -9.5 4.7 -11.0 5.95 Q-13.0 7.7 -13.55 8.7 -14.1 9.7 -13.75 10.85 -13.5 12.2 -11.85 12.55 -5.4 13.6 0.4 11.95 7.15 10.0 7.5 9.25 8.05 7.7 6.2 3.4 5.6 2.15 3.75 0.9 Z" fill="none" stroke="#2b1f16" stroke-linecap="round" stroke-linejoin="round" stroke-width="1.0"/>
      <path d="M7.05 8.85 Q1.3 11.5 -4.3 12.05 L-11.65 11.75 Q-13.4 10.8 -13.5 9.9" fill="none" stroke="#b01e8e" stroke-linecap="round" stroke-linejoin="round" stroke-width="1.0"/>
      <path d="M-0.4 5.8 Q1.3 1.6 -0.75 0.65 -2.95 -0.35 -5.05 1.45 L-7.3 3.9" fill="none" stroke="#ffffff" stroke-linecap="round" stroke-linejoin="round" stroke-width="1.0"/>
    </g>
  </defs>
</svg>
